X: 62
T: A Trip up Stairs
%R: jig
B: Stewart "A Select Collection of Airs, Jigs, Marches and Reels", ca.1784, p.29 #62
F: http://imslp.org/wiki/A_Select_Collection_of_Airs,_Jigs,_Marches_and_Reels_%28Various%29
Z: 2017 John Chambers <jc:trillian.mit.edu>
M: 6/8
L: 1/16
K: G
c2 |\
(Bcd2).B2 G4g2 | (fga2).f2 d4c2 | (Bcd2).B2 (ABc2).A2 | (FGA2).F2 D4c2 |\
(Bcd2).B2 G4g2 | (fga2).g2 a4g2 | f2e2d2 A2d2^c2 | d6- d4 :|
|: B2 |\
(c2d2c2) e2d2c2 | (B2c2B2) d2c2B2 | A2B2c2 B2A2G2 | (FGA2).F2 D4c2 |\
(Bcd2).B2 G4g2 | (fga2).f2 g4c2 | B2A2G2 D2G2F2 | G6 G4 :|

%%sep 1 1 500
%%sep 1 1 500

